src/pos-icons/tooltip-plus.svg

<svg height="24" viewBox="0 0 24 24" width="24" xmlns="http://www.w3.org/2000/svg"><path d="m4 2h16a2 2 0 0 1 2 2v12a2 2 0 0 1 -2 2h-4l-4 4-4-4h-4a2 2 0 0 1 -2-2v-12a2 2 0 0 1 2-2m7 4v3h-3v2h3v3h2v-3h3v-2h-3v-3z"/></svg>

<?xml version="1.0" encoding="UTF-8"?><!DOCTYPE svg PUBLIC "-//W3C//DTD SVG 1.1//EN" "http://www.w3.org/Graphics/SVG/1.1/DTD/svg11.dtd"><svg xmlns="http://www.w3.org/2000/svg" xmlns:xlink="http://www.w3.org/1999/xlink" version="1.1" id="mdi-tooltip-plus" width="24" height="24" viewBox="0 0 24 24"><path d="M4,2H20A2,2 0 0,1 22,4V16A2,2 0 0,1 20,18H16L12,22L8,18H4A2,2 0 0,1 2,16V4A2,2 0 0,1 4,2M11,6V9H8V11H11V14H13V11H16V9H13V6H11Z" /></svg>
